X:1
T:My Hope Is Built on Nothing Less
T:My Hope Is Built on Nothing Less
%%score ( 1 2 ) ( 3 4 )
L:1/8
M:3/4
K:F
V:1 treble nm="Piano" snm="Pno."
V:2 treble 
V:3 bass nm="Piano" snm="Pno."
V:4 bass 
V:1
 C2 | [CF][CA] [Fc]2 [FA]2 | [FA][EG] [EG]2 [FA]2 | [FB][FB] [FB]2 [DG]2 | [CF][CE] [CF]2 C2 | %5
w: 1~My|hope is built on|noth- ing less than|Je- sus' blood and|right- eous- ness: I|
w: 2~When|dark- ness veils his|love- ly face, I|rest on his un-|chang- ing grace; in|
w: 3~His|oath, his co- ve-|nant, his blood, sup-|port me in the|whelm- ing flood; when|
w: 4~When|he shall come with|trum- pet sound, O|may I then in|him be found: dressed|
 [CF][CA] [Fc]2 [FA]2 | [FA][EG] [EG]2 [FA]2 | [FB][FB] [FB]2 [DG]2 | [CF][CE] [CF]2 || %9
w: dare not trust the|sweet- est frame, but|whol- ly lean on|Je- sus' name.|
w: ev- ery high and|stor- my gale, my|an- chor holds with-|in the veil.|
w: all a- round my|soul gives way, he|then is all my|hope and stay.|
w: in his right- eous-|ness a- lone, fault-|less to stand be-|fore the throne.|
"^Refrain" [Fc]2 | [Fc][Ec] [Fc]2 [Fc]2 | [Fd][Fd] [Fd]2 [Fd]2 | [Fc][FA] [FA]2 F2 | %13
w: On|Christ, the so- lid|Rock, I stand: all|o- ther ground is|
w: ||||
w: ||||
w: ||||
 [FA][FA] [EG]2 C2 | [CF][CF] [DF]2 [CA]2 | GG [CF]2 |] %16
w: sin- king sand; all|o- ther ground is|sin- king sand.|
w: |||
w: |||
w: |||
V:2
 C2 | x6 | x6 | x6 | x4 C2 | x6 | x6 | x6 | x4 || x2 | x6 | x6 | x4 F2 | x4 C2 | x6 | FE x2 |] %16
V:3
 [F,A,]2 | [F,A,][F,A,] [F,A,]2 [F,C]2 | [C,C][C,C] [C,C]2 [F,C]2 | [B,,D][B,,D] [B,,D]2 [B,,B,]2 | %4
 [C,A,][C,G,] [F,A,]2 [F,A,]2 | [F,A,][F,A,] [F,A,]2 [F,C]2 | [C,C][C,C] [C,C]2 [F,C]2 | %7
 [B,,D][B,,D] [B,,D]2 [B,,B,]2 | [C,A,][C,G,] [F,A,]2 || [F,A,]2 | [F,A,][G,B,] [A,C]2 [F,A,]2 | %11
 B,B, B,2 B,2 | [F,A,][F,C] [F,C]2 [F,A,]2 | [F,C][A,,C] [C,C]2 B,2 | A,A, [B,,B,]2 F,A, | %15
 [C,C][C,B,] [F,A,]2 |] %16
V:4
 x2 | x6 | x6 | x6 | x6 | x6 | x6 | x6 | x4 || x2 | x6 | B,B, B,2 B,2 | x6 | x4 B,2 | A,F, x2 F,2 | %15
 x4 |] %16

